X:1
T:James Gibb editions
T:Signora, un che v'adora - Cara
%%score [ 1 2 3 4 ]
L:1/8
Q:1/4=121
M:4/4
K:C
V:1 treble nm="Soprano" snm="S"
V:2 treble nm="Alto" snm="A"
V:3 treble-8 nm="Tenor" snm="T"
V:4 bass nm="Bass" snm="B"
V:1
"^Signora, un che v'adora""^Marchetto Cara\n(c.1465-1525)" f4 e4 | d4 z2 d2 | d2 d4 ^c2 | %3
w: Si- gno-|ra, un|che v'a- do-|
 d4 z2 d2 |[M:4/4] d2 B2 c2 (d2- | dcBA) B4 | A2 (e3 d) c2 | cBAG A4 | G4 (G3 F) | E3 F GABc | %10
w: ra E~~il|vo- stro no- me~~o\-|* * * * no-|ra Vi * fa~~il|su- o~~a- mor pa- le-|se Ac\- *|ciò~~in er- ror non gli fac-|
 (d2 G3 F)ED | E4 D4- | D8 |] %13
w: cia\- * * te of-|fe- se.||
V:2
 A4 G4 | ^F4 z2 =F2 | F2 F2 G4 | F4 z2 F2 |[M:4/4] F2 G2 A4 | G2 (A4 ^G2) | A4 z2 E2 | %7
w: Si- gno-|ra, un|che v'a- do-|ra E~~il|vo- stro no-|me~~o- no\- *|ra Vi|
 F2 G2 G2 F2 | G2 G2 z2 E2 | G3 F E2 DC | B,4 C2 D2 | D2 ^C2 D4- | D8 |] %13
w: fa~~il suo~~a- mor pa-|le- se Ac-|ciò~~in er- ror non gli|fac- cia- te|of- fe- se.||
V:3
 c4 c4 | A4 z2 A2 | A2 A2 G4 | A4 z2 A2 |[M:4/4][K:treble-8] d3 e f4 | e4 e4 | e3 d c3 B | %7
w: Si- gno-|ra, un|che v'a- do-|ra E~~il|vo- stro no-|me~~o- no-|ra Vi fa il|
 AGFE (D2 d2) | d4 (c2 BA) | G2 c4 e2 | (d3 c/B/) A4 | A4 F4- | F8 |] %13
w: su- o~~a- mor pa- le\- *|se Ac\- * *|ciò non fac-|cia\- * * te~~of-|fe- se.||
V:4
 F,4 C,4 | D,4 z2 D,2 | D,2 D,2 E,4 | D,4 z2 D,2 |[M:4/4] D,2 G,2 F,2 D,2 | E,4 E,4 | A,,4 C,4 | %7
w: Si- gno-|ra, un|che v'a- do-|ra E~~il|vo- stro no- me|o- no-|ra Vi|
 D,4 D,4 | G,,4 C,4 | C,2 C,2 C,4 | G,,4 A,,4 | A,,4 A,4- | A,8 |] %13
w: fa pa-|le- se~Ac-|ciò non fac-|cia- te~~of-|fe- se.||

